X:18
T:Compliments to Margaret MacPhee
R:reel
C:John Campbell
D:John Campbell, Cape Breton Violin Music (1975-2006)
Z:Paul Stewart Cranford (P.S.C.), <http://www.cranfordpub.com>
L:1/8
M:C|
Q:333
K:D
F2 Dd FDDB|ADBG AGFE|Ddcd FDDF|E=CCE =c2 Bd|
F2 Dd FDDB|ADBG AGFE|Ddcd fdAF|E=CCE =c2||
||Bc|d2 fd gefd|ABAG FDDB|Adfa gfed|=cAGF E=CCE|
d2 fd gefd|ABAG FDDB|AD F2 ADFD|E=CCE =c2 Bd|]
